X:1
T:Weave-Room Blues
M:4/4
L:1/8
K:C
 E3/2 ^D/2 EF G2 E2| F3/2 E/2 FE D2 z2| F3/2 F/2 FG AG F3/2 F/2| G3/2 F/2 GF E4|\
 G3/2 ^F/2 GG c2 EE| A3/2- F/2 FE AF z A| c2 c3/2 c/2 cG _BA| G3/2- ^F/2 E2 C3/2 E/2 FE|\
 G4 z G_B G| _B4 z Gc G| c2 c2G-F E2| C4 z EF E| G e2- G- G2- G3/2- ^F/2-|\
 =F- d2- G- G2- G2-| E- c3- c4| z8|
